X:413
T:I'll Tell Me Ma
M:2/4
L:1/8
K:G
G/2|"G"DG B>B|"C"cB "G"B>B|"D7"BA A>B|"G"AG G>G|
DG B>B| "C"cB "G"B>B|"D7"BA A>B|"G"AG G2||
"Bm"dd dB|"Am"cc cA|"G"BB/2B/2 BG|"D7"AF ED|
"G"dd "G7"dB|"C"cc c2|"G"BG/2G/2 "D7"AF|"G"GG G3/2||


%%newpage
%%scale 0.7
